images/3246031.svg

<?xml version="1.0" encoding="UTF-8"?>
<svg xmlns="http://www.w3.org/2000/svg" xmlns:xlink="http://www.w3.org/1999/xlink" width="300pt" height="300pt" viewBox="0 0 300 300" version="1.1">
<defs>
<g>
<symbol overflow="visible" id="glyph0-0">
<path style="stroke:none;" d="M 0.796875 2.828125 L 0.796875 -11.28125 L 8.796875 -11.28125 L 8.796875 2.828125 Z M 1.703125 1.9375 L 7.90625 1.9375 L 7.90625 -10.390625 L 1.703125 -10.390625 Z M 1.703125 1.9375 "/>
</symbol>
<symbol overflow="visible" id="glyph0-1">
<path style="stroke:none;" d="M 1.578125 -11.671875 L 3.703125 -11.671875 L 8.875 -1.90625 L 8.875 -11.671875 L 10.40625 -11.671875 L 10.40625 0 L 8.28125 0 L 3.109375 -9.765625 L 3.109375 0 L 1.578125 0 Z M 1.578125 -11.671875 "/>
</symbol>
</g>
</defs>
<g id="surface36597">
<rect x="0" y="0" width="300" height="300" style="fill:rgb(100%,100%,100%);fill-opacity:1;stroke:none;"/>
<path style="fill:none;stroke-width:1;stroke-linecap:butt;stroke-linejoin:miter;stroke:rgb(0%,0%,0%);stroke-opacity:1;stroke-miterlimit:10;" d="M 123.492188 143.273438 L 123.492188 143.273438 M 122.34375 146.042969 L 123.363281 146.269531 M 121.195312 148.816406 L 123.230469 149.265625 M 120.046875 151.585938 L 123.101562 152.261719 M 118.898438 154.359375 L 122.972656 155.261719 M 117.753906 157.128906 L 122.84375 158.257812 M 116.605469 159.902344 L 122.714844 161.253906 M 115.457031 162.675781 L 122.582031 164.253906 M 114.308594 165.445312 L 122.453125 167.25 M 113.160156 168.21875 L 122.324219 170.246094 M 112.011719 170.988281 L 122.195312 173.242188 M 110.867188 173.761719 L 122.0625 176.242188 M 109.71875 176.53125 L 121.933594 179.238281 M 108.632812 179.15625 L 121.8125 182.078125 "/>
<path style="fill:none;stroke-width:1.2;stroke-linecap:butt;stroke-linejoin:miter;stroke:rgb(0%,0%,0%);stroke-opacity:1;stroke-miterlimit:10;" d="M 123.492188 143.273438 L 95.285156 117.4375 "/>
<path style="fill:none;stroke-width:1.2;stroke-linecap:butt;stroke-linejoin:miter;stroke:rgb(0%,0%,0%);stroke-opacity:1;stroke-miterlimit:10;" d="M 123.492188 143.273438 L 159.96875 131.761719 "/>
<path style="fill:none;stroke-width:1.2;stroke-linecap:butt;stroke-linejoin:miter;stroke:rgb(0%,0%,0%);stroke-opacity:1;stroke-miterlimit:10;" d="M 95.285156 117.4375 L 77.046875 123.191406 "/>
<path style="fill:none;stroke-width:1.2;stroke-linecap:butt;stroke-linejoin:miter;stroke:rgb(0%,0%,100%);stroke-opacity:1;stroke-miterlimit:10;" d="M 77.046875 123.191406 L 58.808594 128.949219 "/>
<path style="fill:none;stroke-width:1.2;stroke-linecap:butt;stroke-linejoin:miter;stroke:rgb(0%,0%,100%);stroke-opacity:1;stroke-miterlimit:10;" d="M 58.808594 128.949219 L 44.703125 116.03125 "/>
<path style="fill:none;stroke-width:1.2;stroke-linecap:butt;stroke-linejoin:miter;stroke:rgb(0%,0%,0%);stroke-opacity:1;stroke-miterlimit:10;" d="M 44.703125 116.03125 L 30.601562 103.113281 "/>
<path style="fill:none;stroke-width:1.2;stroke-linecap:butt;stroke-linejoin:miter;stroke:rgb(0%,0%,100%);stroke-opacity:1;stroke-miterlimit:10;" d="M 58.808594 128.949219 L 54.671875 147.621094 "/>
<path style="fill:none;stroke-width:1.2;stroke-linecap:butt;stroke-linejoin:miter;stroke:rgb(0%,0%,0%);stroke-opacity:1;stroke-miterlimit:10;" d="M 54.671875 147.621094 L 50.539062 166.292969 "/>
<path style=" stroke:none;fill-rule:nonzero;fill:rgb(100%,100%,100%);fill-opacity:1;" d="M 52.808594 119.449219 L 64.808594 119.449219 L 64.808594 138.449219 L 52.808594 138.449219 Z M 52.808594 119.449219 "/>
<g style="fill:rgb(0%,0%,100%);fill-opacity:1;">
  <use xlink:href="#glyph0-1" x="52.808594" y="134.300781"/>
</g>
<path style="fill:none;stroke-width:1.2;stroke-linecap:butt;stroke-linejoin:miter;stroke:rgb(0%,0%,0%);stroke-opacity:1;stroke-miterlimit:10;" d="M 159.96875 131.761719 L 148.457031 95.285156 "/>
<path style="fill:none;stroke-width:1.2;stroke-linecap:butt;stroke-linejoin:miter;stroke:rgb(0%,0%,0%);stroke-opacity:1;stroke-miterlimit:10;" d="M 159.96875 131.761719 L 196.445312 120.25 "/>
<path style="fill:none;stroke-width:1.2;stroke-linecap:butt;stroke-linejoin:miter;stroke:rgb(0%,0%,0%);stroke-opacity:1;stroke-miterlimit:10;" d="M 159.96875 131.761719 L 171.480469 168.238281 "/>
<path style="fill:none;stroke-width:1.2;stroke-linecap:butt;stroke-linejoin:miter;stroke:rgb(0%,0%,0%);stroke-opacity:1;stroke-miterlimit:10;" d="M 148.457031 95.285156 L 142.703125 77.046875 "/>
<path style="fill:none;stroke-width:1.2;stroke-linecap:butt;stroke-linejoin:miter;stroke:rgb(0%,0%,100%);stroke-opacity:1;stroke-miterlimit:10;" d="M 142.703125 77.046875 L 136.949219 58.808594 "/>
<path style="fill:none;stroke-width:1.2;stroke-linecap:butt;stroke-linejoin:miter;stroke:rgb(0%,0%,0%);stroke-opacity:1;stroke-miterlimit:10;" d="M 155.890625 88.929688 L 151.285156 74.335938 "/>
<path style="fill:none;stroke-width:1.2;stroke-linecap:butt;stroke-linejoin:miter;stroke:rgb(0%,0%,100%);stroke-opacity:1;stroke-miterlimit:10;" d="M 151.285156 74.335938 L 146.679688 59.746094 "/>
<path style="fill:none;stroke-width:1.2;stroke-linecap:butt;stroke-linejoin:miter;stroke:rgb(0%,0%,0%);stroke-opacity:1;stroke-miterlimit:10;" d="M 138.722656 94.34375 L 134.121094 79.753906 "/>
<path style="fill:none;stroke-width:1.2;stroke-linecap:butt;stroke-linejoin:miter;stroke:rgb(0%,0%,100%);stroke-opacity:1;stroke-miterlimit:10;" d="M 134.121094 79.753906 L 129.515625 65.164062 "/>
<path style=" stroke:none;fill-rule:nonzero;fill:rgb(100%,100%,100%);fill-opacity:1;" d="M 124.949219 49.308594 L 136.949219 49.308594 L 136.949219 68.308594 L 124.949219 68.308594 Z M 124.949219 49.308594 "/>
<g style="fill:rgb(0%,0%,100%);fill-opacity:1;">
  <use xlink:href="#glyph0-1" x="124.949219" y="64.160156"/>
</g>
<path style="fill:none;stroke-width:1.2;stroke-linecap:butt;stroke-linejoin:miter;stroke:rgb(0%,0%,0%);stroke-opacity:1;stroke-miterlimit:10;" d="M 196.445312 120.25 L 224.652344 146.085938 "/>
<path style="fill:none;stroke-width:1.2;stroke-linecap:butt;stroke-linejoin:miter;stroke:rgb(0%,0%,0%);stroke-opacity:1;stroke-miterlimit:10;" d="M 205.34375 116.199219 L 227.910156 136.867188 "/>
<path style="fill:none;stroke-width:1.2;stroke-linecap:butt;stroke-linejoin:miter;stroke:rgb(0%,0%,0%);stroke-opacity:1;stroke-miterlimit:10;" d="M 204.714844 82.90625 L 196.445312 120.25 "/>
<path style="fill:none;stroke-width:1.2;stroke-linecap:butt;stroke-linejoin:miter;stroke:rgb(0%,0%,0%);stroke-opacity:1;stroke-miterlimit:10;" d="M 224.652344 146.085938 L 261.128906 134.574219 "/>
<path style="fill:none;stroke-width:1.2;stroke-linecap:butt;stroke-linejoin:miter;stroke:rgb(0%,0%,0%);stroke-opacity:1;stroke-miterlimit:10;" d="M 261.128906 134.574219 L 269.398438 97.230469 "/>
<path style="fill:none;stroke-width:1.2;stroke-linecap:butt;stroke-linejoin:miter;stroke:rgb(0%,0%,0%);stroke-opacity:1;stroke-miterlimit:10;" d="M 253.167969 128.894531 L 259.785156 99.019531 "/>
<path style="fill:none;stroke-width:1.2;stroke-linecap:butt;stroke-linejoin:miter;stroke:rgb(0%,0%,0%);stroke-opacity:1;stroke-miterlimit:10;" d="M 269.398438 97.230469 L 241.191406 71.394531 "/>
<path style="fill:none;stroke-width:1.2;stroke-linecap:butt;stroke-linejoin:miter;stroke:rgb(0%,0%,0%);stroke-opacity:1;stroke-miterlimit:10;" d="M 241.191406 71.394531 L 204.714844 82.90625 "/>
<path style="fill:none;stroke-width:1.2;stroke-linecap:butt;stroke-linejoin:miter;stroke:rgb(0%,0%,0%);stroke-opacity:1;stroke-miterlimit:10;" d="M 240.253906 81.128906 L 211.070312 90.335938 "/>
<path style="fill:none;stroke-width:1.2;stroke-linecap:butt;stroke-linejoin:miter;stroke:rgb(0%,0%,0%);stroke-opacity:1;stroke-miterlimit:10;" d="M 171.480469 168.238281 L 145.644531 196.445312 "/>
<path style="fill:none;stroke-width:1.2;stroke-linecap:butt;stroke-linejoin:miter;stroke:rgb(0%,0%,0%);stroke-opacity:1;stroke-miterlimit:10;" d="M 175.53125 177.136719 L 154.863281 199.703125 "/>
<path style="fill:none;stroke-width:1.2;stroke-linecap:butt;stroke-linejoin:miter;stroke:rgb(0%,0%,0%);stroke-opacity:1;stroke-miterlimit:10;" d="M 208.824219 176.507812 L 171.480469 168.238281 "/>
<path style="fill:none;stroke-width:1.2;stroke-linecap:butt;stroke-linejoin:miter;stroke:rgb(0%,0%,0%);stroke-opacity:1;stroke-miterlimit:10;" d="M 145.644531 196.445312 L 157.15625 232.921875 "/>
<path style="fill:none;stroke-width:1.2;stroke-linecap:butt;stroke-linejoin:miter;stroke:rgb(0%,0%,0%);stroke-opacity:1;stroke-miterlimit:10;" d="M 157.15625 232.921875 L 194.5 241.191406 "/>
<path style="fill:none;stroke-width:1.2;stroke-linecap:butt;stroke-linejoin:miter;stroke:rgb(0%,0%,0%);stroke-opacity:1;stroke-miterlimit:10;" d="M 162.835938 224.960938 L 192.710938 231.578125 "/>
<path style="fill:none;stroke-width:1.2;stroke-linecap:butt;stroke-linejoin:miter;stroke:rgb(0%,0%,0%);stroke-opacity:1;stroke-miterlimit:10;" d="M 194.5 241.191406 L 220.335938 212.984375 "/>
<path style="fill:none;stroke-width:1.2;stroke-linecap:butt;stroke-linejoin:miter;stroke:rgb(0%,0%,0%);stroke-opacity:1;stroke-miterlimit:10;" d="M 220.335938 212.984375 L 208.824219 176.507812 "/>
<path style="fill:none;stroke-width:1.2;stroke-linecap:butt;stroke-linejoin:miter;stroke:rgb(0%,0%,0%);stroke-opacity:1;stroke-miterlimit:10;" d="M 210.601562 212.046875 L 201.390625 182.863281 "/>
</g>
</svg>

<svg xmlns="http://www.w3.org/2000/svg" xmlns:xlink="http://www.w3.org/1999/xlink" width="300pt" height="300pt" viewBox="0 0 300 300"><defs><symbol overflow="visible"><path d="M.797 2.828v-14.11h8V2.83zm.906-.89h6.203v-12.33H1.703zm0 0"/></symbol><symbol overflow="visible" id="a"><path d="M1.578-11.672h2.125l5.172 9.766v-9.766h1.53V0H8.282L3.11-9.766V0H1.577zm0 0"/></symbol></defs><g><path fill="#fff" d="M0 0h300v300H0z"/><path d="M123.492 143.273m-1.148 2.77l1.02.227m-2.17 2.546l2.036.45m-3.183 2.32l3.055.676m-4.204 2.097l4.075.902m-5.22 1.867l5.09 1.128m-6.238 1.644l6.11 1.352m-7.258 1.422l7.125 1.578m-8.273 1.19l8.143 1.806m-9.293.97l9.164 2.026m-10.312.742l10.183 2.254m-11.328.52l11.195 2.48m-12.343.29l12.214 2.706m-13.3-.082l13.178 2.922" stroke="#000" stroke-miterlimit="10" fill="none"/><path d="M123.492 143.273l-28.207-25.835M123.492 143.273l36.477-11.51M95.285 117.438l-18.238 5.753" stroke-width="1.2" stroke="#000" stroke-miterlimit="10" fill="none"/><path d="M77.047 123.19l-18.238 5.76M58.81 128.95l-14.107-12.92" stroke-width="1.2" stroke="#00f" stroke-miterlimit="10" fill="none"/><path d="M44.703 116.03l-14.1-12.917" stroke-width="1.2" stroke="#000" stroke-miterlimit="10" fill="none"/><path d="M58.81 128.95l-4.138 18.67" stroke-width="1.2" stroke="#00f" stroke-miterlimit="10" fill="none"/><path d="M54.672 147.62l-4.133 18.673" stroke-width="1.2" stroke="#000" stroke-miterlimit="10" fill="none"/><path d="M52.81 119.45h12v19h-12zm0 0" fill="#fff"/><use xlink:href="#a" x="52.809" y="134.301" fill="#00f"/><path d="M159.97 131.762l-11.513-36.477M159.97 131.762l36.475-11.512M159.97 131.762l11.51 36.476M148.457 95.285l-5.754-18.238" stroke-width="1.2" stroke="#000" stroke-miterlimit="10" fill="none"/><path d="M142.703 77.047L136.95 58.81" stroke-width="1.2" stroke="#00f" stroke-miterlimit="10" fill="none"/><path d="M155.89 88.93l-4.605-14.594" stroke-width="1.2" stroke="#000" stroke-miterlimit="10" fill="none"/><path d="M151.285 74.336l-4.605-14.59" stroke-width="1.2" stroke="#00f" stroke-miterlimit="10" fill="none"/><path d="M138.723 94.344l-4.602-14.59" stroke-width="1.2" stroke="#000" stroke-miterlimit="10" fill="none"/><path d="M134.12 79.754l-4.604-14.59" stroke-width="1.2" stroke="#00f" stroke-miterlimit="10" fill="none"/><path d="M124.95 49.31h12v19h-12zm0 0" fill="#fff"/><use xlink:href="#a" x="124.949" y="64.16" fill="#00f"/><path d="M196.445 120.25l28.207 25.836M205.344 116.2l22.566 20.667M204.715 82.906l-8.27 37.344M224.652 146.086l36.477-11.512M261.13 134.574l8.268-37.344M253.168 128.895l6.617-29.875M269.398 97.23L241.19 71.395M241.19 71.395l-36.475 11.51M240.254 81.13l-29.184 9.206M171.48 168.238l-25.835 28.207M175.53 177.137l-20.667 22.566M208.824 176.508l-37.344-8.27M145.645 196.445l11.51 36.477M157.156 232.922l37.344 8.27M162.836 224.96l29.875 6.618M194.5 241.19l25.836-28.206M220.336 212.984l-11.512-36.476M210.602 212.047l-9.21-29.184" stroke-width="1.2" stroke="#000" stroke-miterlimit="10" fill="none"/></g></svg>
